X:838
T:Sheep Shanks
R:Reel
C:Robert 'Red Rob' MacIntosh
B:The Athole Collection
M:C|
L:1/8
K:A
g|a2ed cAec|Bcde fBbg|a2ed cAec|dfec A/A/A A:|
e|cAEA cAec|Bcde fBfd|cAEA cAec|dfec A/A/A Ae|cAEA cAec|
Bcde fBfd|deae dfba|gefg aAA||

